content/blogs/regnskap/hva-er-tollverdi/ai-tollverdi-kontroll.svg

<svg xmlns="http://www.w3.org/2000/svg" viewBox="0 0 800 600"><defs><linearGradient id="a" x1="0%" x2="100%" y1="0%" y2="100%"><stop offset="0%" style="stop-color:#667eea;stop-opacity:1"/><stop offset="100%" style="stop-color:#764ba2;stop-opacity:1"/></linearGradient><linearGradient id="b" x1="0%" x2="100%" y1="0%" y2="100%"><stop offset="0%" style="stop-color:#4facfe;stop-opacity:1"/><stop offset="100%" style="stop-color:#00f2fe;stop-opacity:1"/></linearGradient><linearGradient id="c" x1="0%" x2="100%" y1="0%" y2="100%"><stop offset="0%" style="stop-color:#43e97b;stop-opacity:1"/><stop offset="100%" style="stop-color:#38f9d7;stop-opacity:1"/></linearGradient></defs><path fill="#f8fafc" d="M0 0h800v600H0z"/><text x="400" y="30" fill="#2d3748" font-family="Arial, sans-serif" font-size="20" font-weight="bold" text-anchor="middle">
    AI i Tollverdi-kontroll
  </text><circle cx="400" cy="300" r="80" fill="url(#a)" stroke="#4a5568" stroke-width="2"/><text x="400" y="295" fill="#fff" font-family="Arial, sans-serif" font-size="14" font-weight="bold" text-anchor="middle">
    AI-SYSTEM
  </text><text x="400" y="310" fill="#fff" font-family="Arial, sans-serif" font-size="12" text-anchor="middle">
    Tollverdi-kontroll
  </text><g fill="none" stroke="#764ba2" opacity=".3"><path d="M350 270q25-20 50 0 25-20 50 0M350 300q25 20 50 0 25 20 50 0M350 330q25 20 50 0 25 20 50 0"/></g><rect width="140" height="60" x="50" y="120" fill="url(#b)" stroke="#0369a1" rx="8"/><text x="120" y="140" fill="#fff" font-family="Arial, sans-serif" font-size="12" font-weight="bold" text-anchor="middle">
      HISTORISKE DATA
    </text><text x="120" y="155" fill="#fff" font-family="Arial, sans-serif" font-size="10" text-anchor="middle">
      Tidligere kontroller
    </text><text x="120" y="168" fill="#fff" font-family="Arial, sans-serif" font-size="10" text-anchor="middle">
      Prisavvik
    </text><rect width="140" height="60" x="50" y="200" fill="url(#b)" stroke="#0369a1" rx="8"/><text x="120" y="220" fill="#fff" font-family="Arial, sans-serif" font-size="12" font-weight="bold" text-anchor="middle">
      IMPORTDOKUMENTER
    </text><text x="120" y="235" fill="#fff" font-family="Arial, sans-serif" font-size="10" text-anchor="middle">
      Fakturaer
    </text><text x="120" y="248" fill="#fff" font-family="Arial, sans-serif" font-size="10" text-anchor="middle">
      Kontrakter
    </text><rect width="140" height="60" x="50" y="280" fill="url(#b)" stroke="#0369a1" rx="8"/><text x="120" y="300" fill="#fff" font-family="Arial, sans-serif" font-size="12" font-weight="bold" text-anchor="middle">
      HANDELSMØNSTRE
    </text><text x="120" y="315" fill="#fff" font-family="Arial, sans-serif" font-size="10" text-anchor="middle">
      Leverandører
    </text><text x="120" y="328" fill="#fff" font-family="Arial, sans-serif" font-size="10" text-anchor="middle">
      Handelsruter
    </text><rect width="140" height="60" x="50" y="360" fill="url(#b)" stroke="#0369a1" rx="8"/><text x="120" y="380" fill="#fff" font-family="Arial, sans-serif" font-size="12" font-weight="bold" text-anchor="middle">
      MARKEDSPRISER
    </text><text x="120" y="395" fill="#fff" font-family="Arial, sans-serif" font-size="10" text-anchor="middle">
      Referansepriser
    </text><text x="120" y="408" fill="#fff" font-family="Arial, sans-serif" font-size="10" text-anchor="middle">
      Prisindekser
    </text><rect width="120" height="50" x="250" y="140" fill="#e2e8f0" stroke="#718096" rx="8"/><text x="310" y="160" fill="#2d3748" font-family="Arial, sans-serif" font-size="11" font-weight="bold" text-anchor="middle">
      MØNSTERGJENKJENNING
    </text><text x="310" y="175" fill="#4a5568" font-family="Arial, sans-serif" font-size="9" text-anchor="middle">
      Avvikende priser
    </text><rect width="120" height="50" x="250" y="210" fill="#e2e8f0" stroke="#718096" rx="8"/><text x="310" y="230" fill="#2d3748" font-family="Arial, sans-serif" font-size="11" font-weight="bold" text-anchor="middle">
      RISIKOVURDERING
    </text><text x="310" y="245" fill="#4a5568" font-family="Arial, sans-serif" font-size="9" text-anchor="middle">
      Sannsynlighet for feil
    </text><rect width="120" height="50" x="250" y="280" fill="#e2e8f0" stroke="#718096" rx="8"/><text x="310" y="300" fill="#2d3748" font-family="Arial, sans-serif" font-size="11" font-weight="bold" text-anchor="middle">
      PREDIKTIVE MODELLER
    </text><text x="310" y="315" fill="#4a5568" font-family="Arial, sans-serif" font-size="9" text-anchor="middle">
      Fremtidige trender
    </text><rect width="120" height="50" x="250" y="350" fill="#e2e8f0" stroke="#718096" rx="8"/><text x="310" y="370" fill="#2d3748" font-family="Arial, sans-serif" font-size="11" font-weight="bold" text-anchor="middle">
      MASKINLÆRING
    </text><text x="310" y="385" fill="#4a5568" font-family="Arial, sans-serif" font-size="9" text-anchor="middle">
      Kontinuerlig forbedring
    </text><rect width="140" height="60" x="500" y="140" fill="url(#c)" stroke="#047857" rx="8"/><text x="570" y="160" fill="#fff" font-family="Arial, sans-serif" font-size="12" font-weight="bold" text-anchor="middle">
      AUTOMATISK FLAGGING
    </text><text x="570" y="175" fill="#fff" font-family="Arial, sans-serif" font-size="10" text-anchor="middle">
      Mistenksomme
    </text><text x="570" y="188" fill="#fff" font-family="Arial, sans-serif" font-size="10" text-anchor="middle">
      tollverdier
    </text><rect width="140" height="60" x="500" y="220" fill="url(#c)" stroke="#047857" rx="8"/><text x="570" y="240" fill="#fff" font-family="Arial, sans-serif" font-size="12" font-weight="bold" text-anchor="middle">
      PRIORITETSRANKING
    </text><text x="570" y="255" fill="#fff" font-family="Arial, sans-serif" font-size="10" text-anchor="middle">
      Høyrisikosampler
    </text><text x="570" y="268" fill="#fff" font-family="Arial, sans-serif" font-size="10" text-anchor="middle">
      først
    </text><rect width="140" height="60" x="500" y="300" fill="url(#c)" stroke="#047857" rx="8"/><text x="570" y="320" fill="#fff" font-family="Arial, sans-serif" font-size="12" font-weight="bold" text-anchor="middle">
      VERIFIKASJONSFORSLAG
    </text><text x="570" y="335" fill="#fff" font-family="Arial, sans-serif" font-size="10" text-anchor="middle">
      Anbefalte
    </text><text x="570" y="348" fill="#fff" font-family="Arial, sans-serif" font-size="10" text-anchor="middle">
      kontrolltiltak
    </text><rect width="140" height="60" x="500" y="380" fill="url(#c)" stroke="#047857" rx="8"/><text x="570" y="400" fill="#fff" font-family="Arial, sans-serif" font-size="12" font-weight="bold" text-anchor="middle">
      YTELSESMÅLINGER
    </text><text x="570" y="415" fill="#fff" font-family="Arial, sans-serif" font-size="10" text-anchor="middle">
      Effektivitet og
    </text><text x="570" y="428" fill="#fff" font-family="Arial, sans-serif" font-size="10" text-anchor="middle">
      treffsikkerhet
    </text><rect width="100" height="100" x="680" y="250" fill="#fef3c7" stroke="#f59e0b" stroke-width="2" rx="8"/><text x="730" y="280" fill="#92400e" font-family="Arial, sans-serif" font-size="12" font-weight="bold" text-anchor="middle">
    FORBEDRET
  </text><text x="730" y="295" fill="#92400e" font-family="Arial, sans-serif" font-size="12" font-weight="bold" text-anchor="middle">
    KONTROLL-
  </text><text x="730" y="310" fill="#92400e" font-family="Arial, sans-serif" font-size="12" font-weight="bold" text-anchor="middle">
    EFFEKTIVITET
  </text><text x="730" y="330" fill="#92400e" font-family="Arial, sans-serif" font-size="10" text-anchor="middle">
    • Høyere treffsikkerhet
  </text><text x="730" y="345" fill="#92400e" font-family="Arial, sans-serif" font-size="10" text-anchor="middle">
    • Raskere behandling
  </text><g fill="none" stroke="#4a5568" stroke-width="2" marker-end="url(#d)"><defs><marker id="d" markerHeight="7" markerWidth="10" orient="auto" refX="9" refY="3.5"><path fill="#4a5568" d="m0 0 10 3.5L0 7z"/></marker></defs><path d="m190 150 60 15"/><path d="M190 230h60"/><path d="M190 310h60"/><path d="m190 390 60-15"/><path d="m370 165-50 100"/><path d="m370 235-50 50"/><path d="M370 305h-50"/><path d="m370 375-50-40"/><path d="m480 265 20-95"/><path d="m480 285 20-35"/><path d="m480 305 20 25"/><path d="m480 335 20 75"/><path d="m640 170 40 110"/><path d="m640 250 40 40"/><path d="m640 330 40-20"/><path d="m640 410 40-90"/></g><g font-family="Arial, sans-serif"><text x="400" y="500" fill="#2d3748" font-size="14" font-weight="bold" text-anchor="middle">
      Nøkkelfordeler ved AI-basert tollverdi-kontroll:
    </text><text x="150" y="530" fill="#4a5568" font-size="11">
      • Automatisk identifikasjon av prisavvik og mistenkelige mønstre
    </text><text x="150" y="545" fill="#4a5568" font-size="11">
      • Prediktive modeller for risikovurdering basert på historiske data
    </text><text x="150" y="560" fill="#4a5568" font-size="11">
      • Kontinuerlig læring og forbedring av kontrolleffektivitet
    </text><text x="150" y="575" fill="#4a5568" font-size="11">
      • Målrettet ressursbruk gjennom prioritering av høyrisiko-tilfeller
    </text></g></svg>

<svg viewBox="0 0 800 600" xmlns="http://www.w3.org/2000/svg">
  <defs>
    <linearGradient id="aiGradient" x1="0%" y1="0%" x2="100%" y2="100%">
      <stop offset="0%" style="stop-color:#667eea;stop-opacity:1" />
      <stop offset="100%" style="stop-color:#764ba2;stop-opacity:1" />
    </linearGradient>
    <linearGradient id="dataGradient" x1="0%" y1="0%" x2="100%" y2="100%">
      <stop offset="0%" style="stop-color:#4facfe;stop-opacity:1" />
      <stop offset="100%" style="stop-color:#00f2fe;stop-opacity:1" />
    </linearGradient>
    <linearGradient id="controlGradient" x1="0%" y1="0%" x2="100%" y2="100%">
      <stop offset="0%" style="stop-color:#43e97b;stop-opacity:1" />
      <stop offset="100%" style="stop-color:#38f9d7;stop-opacity:1" />
    </linearGradient>
  </defs>
  

  <rect width="800" height="600" fill="#f8fafc"/>
  

  <text x="400" y="30" text-anchor="middle" font-family="Arial, sans-serif" font-size="20" font-weight="bold" fill="#2d3748">
    AI i Tollverdi-kontroll
  </text>
  

  <circle cx="400" cy="300" r="80" fill="url(#aiGradient)" stroke="#4a5568" stroke-width="2"/>
  <text x="400" y="295" text-anchor="middle" font-family="Arial, sans-serif" font-size="14" font-weight="bold" fill="white">
    AI-SYSTEM
  </text>
  <text x="400" y="310" text-anchor="middle" font-family="Arial, sans-serif" font-size="12" fill="white">
    Tollverdi-kontroll
  </text>
  

  <g stroke="#764ba2" stroke-width="1" fill="none" opacity="0.3">
    <path d="M 350 270 Q 375 250 400 270 Q 425 250 450 270"/>
    <path d="M 350 300 Q 375 320 400 300 Q 425 320 450 300"/>
    <path d="M 350 330 Q 375 350 400 330 Q 425 350 450 330"/>
  </g>
  

  <g>

    <rect x="50" y="120" width="140" height="60" rx="8" fill="url(#dataGradient)" stroke="#0369a1" stroke-width="1"/>
    <text x="120" y="140" text-anchor="middle" font-family="Arial, sans-serif" font-size="12" font-weight="bold" fill="white">
      HISTORISKE DATA
    </text>
    <text x="120" y="155" text-anchor="middle" font-family="Arial, sans-serif" font-size="10" fill="white">
      Tidligere kontroller
    </text>
    <text x="120" y="168" text-anchor="middle" font-family="Arial, sans-serif" font-size="10" fill="white">
      Prisavvik
    </text>
    

    <rect x="50" y="200" width="140" height="60" rx="8" fill="url(#dataGradient)" stroke="#0369a1" stroke-width="1"/>
    <text x="120" y="220" text-anchor="middle" font-family="Arial, sans-serif" font-size="12" font-weight="bold" fill="white">
      IMPORTDOKUMENTER
    </text>
    <text x="120" y="235" text-anchor="middle" font-family="Arial, sans-serif" font-size="10" fill="white">
      Fakturaer
    </text>
    <text x="120" y="248" text-anchor="middle" font-family="Arial, sans-serif" font-size="10" fill="white">
      Kontrakter
    </text>
    

    <rect x="50" y="280" width="140" height="60" rx="8" fill="url(#dataGradient)" stroke="#0369a1" stroke-width="1"/>
    <text x="120" y="300" text-anchor="middle" font-family="Arial, sans-serif" font-size="12" font-weight="bold" fill="white">
      HANDELSMØNSTRE
    </text>
    <text x="120" y="315" text-anchor="middle" font-family="Arial, sans-serif" font-size="10" fill="white">
      Leverandører
    </text>
    <text x="120" y="328" text-anchor="middle" font-family="Arial, sans-serif" font-size="10" fill="white">
      Handelsruter
    </text>
    

    <rect x="50" y="360" width="140" height="60" rx="8" fill="url(#dataGradient)" stroke="#0369a1" stroke-width="1"/>
    <text x="120" y="380" text-anchor="middle" font-family="Arial, sans-serif" font-size="12" font-weight="bold" fill="white">
      MARKEDSPRISER
    </text>
    <text x="120" y="395" text-anchor="middle" font-family="Arial, sans-serif" font-size="10" fill="white">
      Referansepriser
    </text>
    <text x="120" y="408" text-anchor="middle" font-family="Arial, sans-serif" font-size="10" fill="white">
      Prisindekser
    </text>
  </g>
  

  <g>

    <rect x="250" y="140" width="120" height="50" rx="8" fill="#e2e8f0" stroke="#718096" stroke-width="1"/>
    <text x="310" y="160" text-anchor="middle" font-family="Arial, sans-serif" font-size="11" font-weight="bold" fill="#2d3748">
      MØNSTERGJENKJENNING
    </text>
    <text x="310" y="175" text-anchor="middle" font-family="Arial, sans-serif" font-size="9" fill="#4a5568">
      Avvikende priser
    </text>
    

    <rect x="250" y="210" width="120" height="50" rx="8" fill="#e2e8f0" stroke="#718096" stroke-width="1"/>
    <text x="310" y="230" text-anchor="middle" font-family="Arial, sans-serif" font-size="11" font-weight="bold" fill="#2d3748">
      RISIKOVURDERING
    </text>
    <text x="310" y="245" text-anchor="middle" font-family="Arial, sans-serif" font-size="9" fill="#4a5568">
      Sannsynlighet for feil
    </text>
    

    <rect x="250" y="280" width="120" height="50" rx="8" fill="#e2e8f0" stroke="#718096" stroke-width="1"/>
    <text x="310" y="300" text-anchor="middle" font-family="Arial, sans-serif" font-size="11" font-weight="bold" fill="#2d3748">
      PREDIKTIVE MODELLER
    </text>
    <text x="310" y="315" text-anchor="middle" font-family="Arial, sans-serif" font-size="9" fill="#4a5568">
      Fremtidige trender
    </text>
    

    <rect x="250" y="350" width="120" height="50" rx="8" fill="#e2e8f0" stroke="#718096" stroke-width="1"/>
    <text x="310" y="370" text-anchor="middle" font-family="Arial, sans-serif" font-size="11" font-weight="bold" fill="#2d3748">
      MASKINLÆRING
    </text>
    <text x="310" y="385" text-anchor="middle" font-family="Arial, sans-serif" font-size="9" fill="#4a5568">
      Kontinuerlig forbedring
    </text>
  </g>
  

  <g>

    <rect x="500" y="140" width="140" height="60" rx="8" fill="url(#controlGradient)" stroke="#047857" stroke-width="1"/>
    <text x="570" y="160" text-anchor="middle" font-family="Arial, sans-serif" font-size="12" font-weight="bold" fill="white">
      AUTOMATISK FLAGGING
    </text>
    <text x="570" y="175" text-anchor="middle" font-family="Arial, sans-serif" font-size="10" fill="white">
      Mistenksomme
    </text>
    <text x="570" y="188" text-anchor="middle" font-family="Arial, sans-serif" font-size="10" fill="white">
      tollverdier
    </text>
    

    <rect x="500" y="220" width="140" height="60" rx="8" fill="url(#controlGradient)" stroke="#047857" stroke-width="1"/>
    <text x="570" y="240" text-anchor="middle" font-family="Arial, sans-serif" font-size="12" font-weight="bold" fill="white">
      PRIORITETSRANKING
    </text>
    <text x="570" y="255" text-anchor="middle" font-family="Arial, sans-serif" font-size="10" fill="white">
      Høyrisikosampler
    </text>
    <text x="570" y="268" text-anchor="middle" font-family="Arial, sans-serif" font-size="10" fill="white">
      først
    </text>
    

    <rect x="500" y="300" width="140" height="60" rx="8" fill="url(#controlGradient)" stroke="#047857" stroke-width="1"/>
    <text x="570" y="320" text-anchor="middle" font-family="Arial, sans-serif" font-size="12" font-weight="bold" fill="white">
      VERIFIKASJONSFORSLAG
    </text>
    <text x="570" y="335" text-anchor="middle" font-family="Arial, sans-serif" font-size="10" fill="white">
      Anbefalte
    </text>
    <text x="570" y="348" text-anchor="middle" font-family="Arial, sans-serif" font-size="10" fill="white">
      kontrolltiltak
    </text>
    

    <rect x="500" y="380" width="140" height="60" rx="8" fill="url(#controlGradient)" stroke="#047857" stroke-width="1"/>
    <text x="570" y="400" text-anchor="middle" font-family="Arial, sans-serif" font-size="12" font-weight="bold" fill="white">
      YTELSESMÅLINGER
    </text>
    <text x="570" y="415" text-anchor="middle" font-family="Arial, sans-serif" font-size="10" fill="white">
      Effektivitet og
    </text>
    <text x="570" y="428" text-anchor="middle" font-family="Arial, sans-serif" font-size="10" fill="white">
      treffsikkerhet
    </text>
  </g>
  

  <rect x="680" y="250" width="100" height="100" rx="8" fill="#fef3c7" stroke="#f59e0b" stroke-width="2"/>
  <text x="730" y="280" text-anchor="middle" font-family="Arial, sans-serif" font-size="12" font-weight="bold" fill="#92400e">
    FORBEDRET
  </text>
  <text x="730" y="295" text-anchor="middle" font-family="Arial, sans-serif" font-size="12" font-weight="bold" fill="#92400e">
    KONTROLL-
  </text>
  <text x="730" y="310" text-anchor="middle" font-family="Arial, sans-serif" font-size="12" font-weight="bold" fill="#92400e">
    EFFEKTIVITET
  </text>
  <text x="730" y="330" text-anchor="middle" font-family="Arial, sans-serif" font-size="10" fill="#92400e">
    • Høyere treffsikkerhet
  </text>
  <text x="730" y="345" text-anchor="middle" font-family="Arial, sans-serif" font-size="10" fill="#92400e">
    • Raskere behandling
  </text>
  

  <g stroke="#4a5568" stroke-width="2" fill="none" marker-end="url(#arrowhead)">
    <defs>
      <marker id="arrowhead" markerWidth="10" markerHeight="7" refX="9" refY="3.5" orient="auto">
        <polygon points="0 0, 10 3.5, 0 7" fill="#4a5568"/>
      </marker>
    </defs>

    <path d="M 190 150 L 250 165"/>
    <path d="M 190 230 L 250 230"/>
    <path d="M 190 310 L 250 310"/>
    <path d="M 190 390 L 250 375"/>
    

    <path d="M 370 165 L 320 265"/>
    <path d="M 370 235 L 320 285"/>
    <path d="M 370 305 L 320 305"/>
    <path d="M 370 375 L 320 335"/>
    

    <path d="M 480 265 L 500 170"/>
    <path d="M 480 285 L 500 250"/>
    <path d="M 480 305 L 500 330"/>
    <path d="M 480 335 L 500 410"/>
    

    <path d="M 640 170 L 680 280"/>
    <path d="M 640 250 L 680 290"/>
    <path d="M 640 330 L 680 310"/>
    <path d="M 640 410 L 680 320"/>
  </g>
  

  <g>
    <text x="400" y="500" text-anchor="middle" font-family="Arial, sans-serif" font-size="14" font-weight="bold" fill="#2d3748">
      Nøkkelfordeler ved AI-basert tollverdi-kontroll:
    </text>
    <text x="150" y="530" font-family="Arial, sans-serif" font-size="11" fill="#4a5568">
      • Automatisk identifikasjon av prisavvik og mistenkelige mønstre
    </text>
    <text x="150" y="545" font-family="Arial, sans-serif" font-size="11" fill="#4a5568">
      • Prediktive modeller for risikovurdering basert på historiske data
    </text>
    <text x="150" y="560" font-family="Arial, sans-serif" font-size="11" fill="#4a5568">
      • Kontinuerlig læring og forbedring av kontrolleffektivitet
    </text>
    <text x="150" y="575" font-family="Arial, sans-serif" font-size="11" fill="#4a5568">
      • Målrettet ressursbruk gjennom prioritering av høyrisiko-tilfeller
    </text>
  </g>
</svg>
